**kern	**kern	**dynam
*part1	*part1	*part1
*staff2	*staff1	*
*I"Piano	*	*
*clefF4	*clefG2	*
*k[f#c#g#d#]	*k[f#c#g#d#]	*
=1	=1	=1
[2.AAA [2.AA	8f#L 8cc#	>
.	8c#	.
.	8c#J	.
.	8f#L 8a	.
.	8c#	.
.	8c#J	.
4.AAA] 4.AA]	8AL 8f#	.
.	8c#	.
.	8c#J	.
=	=	=
4BBB 4BB	8G#L 8e	] p
.	8B	.
8r	8BJ	.
4BBB 4BB	8G#L 8e	.
.	8B	.
8r	8BJ	.
4BBB 4BB	8AL 8d#	.
.	8B	.
8r	8BJ	.
=	=	=
2.EE 2.E	8G#L 8e	.
.	8B	.
.	8BJ	.
.	8eL 8g#	.
.	8B	.
.	8BJ	.
8G#L	8eL 8b	.
8B	8g#	.
8BJ	8g#J	.
=	=	=
2.E 2.G#	2.e 2.ee	.
4E 4G#	4e 4g#	.
8F# 8A	8f# 8a	.
=	=	=
2.E 2.G# 2.B	8g#L 8b	.
.	8e	.
.	8eJ	.
.	8g#L 8b	.
.	8e	.
.	8eJ	.
=:|!	=:|!	=:|!
2.EE 2.E	8G#L 8e	.
.	8B	.
.	8BJ	.
.	8eL 8g#	.
.	8B	.
.	8BJ	.
!	!LO:TX:a:B:t=Più mosso	!
4r	8eL 8g#	.
.	8B	.
8r	8f#J 8a	.
=	=	=
4.EE 4.E	8g#L 8b	.
.	8e	.
.	8eJ	.
4.E 4.B	8g#L 8b	.
.	8e	.
.	8eJ	.
*^	*	*
4A#X	4.E	8gnL 8cc#	.
.	.	8e	.
8c#	.	8eJ	.
*v	*v	*	*
=	=	=
*-	*-	*-
!!!system-decoration: {(s1,s2)}
